packages/icons/src/color-wheel.svg

<svg width="15" height="15" viewBox="0 0 15 15" fill="none" xmlns="http://www.w3.org/2000/svg">
  <path
    fill-rule="evenodd"
    clip-rule="evenodd"
    d="M0.877075 7.49985C0.877075 3.84216 3.84222 0.877014 7.49991 0.877014C11.1576 0.877014 14.1227 3.84216 14.1227 7.49985C14.1227 11.1575 11.1576 14.1227 7.49991 14.1227C3.84222 14.1227 0.877075 11.1575 0.877075 7.49985ZM3.78135 3.21565C4.68298 2.43239 5.83429 1.92904 7.09998 1.84089V6.53429L3.78135 3.21565ZM3.21567 3.78134C2.43242 4.68298 1.92909 5.83428 1.84095 7.09997H6.5343L3.21567 3.78134ZM6.5343 7.89997H1.84097C1.92916 9.16562 2.43253 10.3169 3.21579 11.2185L6.5343 7.89997ZM3.78149 11.7842C4.6831 12.5673 5.83435 13.0707 7.09998 13.1588V8.46566L3.78149 11.7842ZM7.89998 8.46566V13.1588C9.16559 13.0706 10.3168 12.5673 11.2184 11.7841L7.89998 8.46566ZM11.7841 11.2184C12.5673 10.3168 13.0707 9.16558 13.1588 7.89997H8.46567L11.7841 11.2184ZM8.46567 7.09997H13.1589C13.0707 5.83432 12.5674 4.68305 11.7842 3.78143L8.46567 7.09997ZM11.2185 3.21573C10.3169 2.43246 9.16565 1.92909 7.89998 1.8409V6.53429L11.2185 3.21573Z"
    fill="currentColor"
  />
</svg>

<svg xmlns="http://www.w3.org/2000/svg" width="15" height="15" fill="none"><path fill="currentColor" fill-rule="evenodd" d="M.877 7.5a6.623 6.623 0 1 1 13.246 0 6.623 6.623 0 0 1-13.246 0m2.904-4.284A5.65 5.65 0 0 1 7.1 1.84v4.693zm-.565.565A5.65 5.65 0 0 0 1.84 7.1h4.693zM6.534 7.9H1.841a5.65 5.65 0 0 0 1.375 3.319zm-2.753 3.884A5.65 5.65 0 0 0 7.1 13.16V8.466zM7.9 8.466v4.693a5.65 5.65 0 0 0 3.318-1.375zm3.884 2.752A5.65 5.65 0 0 0 13.16 7.9H8.466zM8.466 7.1h4.693a5.65 5.65 0 0 0-1.375-3.319zm2.753-3.884A5.65 5.65 0 0 0 7.9 1.84v4.693z" clip-rule="evenodd"/></svg>
